icons/svg/chevron-double-left.svg

﻿<?xml version="1.0" encoding="utf-8"?>
<!DOCTYPE svg PUBLIC "-//W3C//DTD SVG 1.1//EN" "http://www.w3.org/Graphics/SVG/1.1/DTD/svg11.dtd">
<svg xmlns="http://www.w3.org/2000/svg" xmlns:xlink="http://www.w3.org/1999/xlink" version="1.1" baseProfile="full" width="24" height="24" viewBox="0 0 24.00 24.00" enable-background="new 0 0 24.00 24.00" xml:space="preserve">
	<path fill="#000000" fill-opacity="1" stroke-width="0.2" stroke-linejoin="round" d="M 18.414,7.41398L 17,6L 11,12L 17,18L 18.414,16.586L 13.828,12L 18.414,7.41398 Z M 12.414,7.41398L 11,6L 5.00001,12L 11,18L 12.414,16.586L 7.82801,12L 12.414,7.41398 Z "/>
</svg>

<svg xmlns="http://www.w3.org/2000/svg" version="1.1" baseProfile="full" width="24" height="24" viewBox="0 0 24.00 24.00" xml:space="preserve"><path fill="#000" fill-opacity="1" stroke-width=".2" stroke-linejoin="round" d="M18.414 7.414L17 6l-6 6 6 6 1.414-1.414L13.828 12l4.586-4.586zm-6 0L11 6l-6 6 6 6 1.414-1.414L7.828 12l4.586-4.586z"/></svg>
